src/assets/images/support-graphic.svg

<svg xmlns="http://www.w3.org/2000/svg" width="320" height="258" viewBox="0 0 320 258">
  <g fill="#1000C5" fill-rule="evenodd">
    <path d="M1,257 L319,257 L319,1 L1,1 L1,257 Z M0,0 L320,0 L320,258 L0,258 L0,0 Z"/>
    <path d="M22,170 C22,168.895431 22.8867659,168 23.9923184,168 L171.007682,168 C172.108009,168 173,168.88773 173,170 C173,171.104569 172.113234,172 171.007682,172 L23.9923184,172 C22.8919913,172 22,171.11227 22,170 Z M22,181 C22,179.895431 22.8867659,179 23.9923184,179 L171.007682,179 C172.108009,179 173,179.88773 173,181 C173,182.104569 172.113234,183 171.007682,183 L23.9923184,183 C22.8919913,183 22,182.11227 22,181 Z M22,192 C22,190.895431 22.8867659,190 23.9923184,190 L171.007682,190 C172.108009,190 173,190.88773 173,192 C173,193.104569 172.113234,194 171.007682,194 L23.9923184,194 C22.8919913,194 22,193.11227 22,192 Z M22,203 C22,201.895431 22.8867659,201 23.9923184,201 L171.007682,201 C172.108009,201 173,201.88773 173,203 C173,204.104569 172.113234,205 171.007682,205 L23.9923184,205 C22.8919913,205 22,204.11227 22,203 Z M22,214 C22,212.895431 22.8867659,212 23.9923184,212 L171.007682,212 C172.108009,212 173,212.88773 173,214 C173,215.104569 172.113234,216 171.007682,216 L23.9923184,216 C22.8919913,216 22,215.11227 22,214 Z M22,225 C22,223.895431 22.8867659,223 23.9923184,223 L171.007682,223 C172.108009,223 173,223.88773 173,225 C173,226.104569 172.113234,227 171.007682,227 L23.9923184,227 C22.8919913,227 22,226.11227 22,225 Z M22,236 C22,234.895431 22.8996312,234 24.0033445,234 L107.996655,234 C109.103072,234 110,234.88773 110,236 C110,237.104569 109.100369,238 107.996655,238 L24.0033445,238 C22.8969279,238 22,237.11227 22,236 Z M22,159 C22,157.895431 22.8867659,157 23.9923184,157 L171.007682,157 C172.108009,157 173,157.88773 173,159 C173,160.104569 172.113234,161 171.007682,161 L23.9923184,161 C22.8919913,161 22,160.11227 22,159 Z"/>
    <rect width="320" height="21"/>
    <rect width="173" height="83" x="22" y="65"/>
    <path d="M22 38C22 35.790861 23.786708 34 25.998442 34L190.001558 34C192.209837 34 194 35.7953562 194 38 194 40.209139 192.213292 42 190.001558 42L25.998442 42C23.7901635 42 22 40.2046438 22 38zM22 55C22 52.790861 23.7818663 51 26.0026346 51L129.997365 51C132.207959 51 134 52.7953562 134 55 134 57.209139 132.218134 59 129.997365 59L26.0026346 59C23.7920406 59 22 57.2046438 22 55zM222 209.500016C222 208.119295 223.133325 207 224.528656 207L295.471344 207C296.867882 207 298 208.122765 298 209.500016L298 229.499984C298 230.880705 296.866675 232 295.471344 232L224.528656 232C223.132118 232 222 230.877235 222 229.499984L222 209.500016zM223 209.642873L223 229.357127C223 230.262738 223.752627 231 224.67716 231L295.32284 231C296.248035 231 297 230.264335 297 229.357127L297 209.642873C297 208.737262 296.247373 208 295.32284 208L224.67716 208C223.751965 208 223 208.735665 223 209.642873zM222 180.500016C222 179.119295 223.133325 178 224.528656 178L295.471344 178C296.867882 178 298 179.122765 298 180.500016L298 200.499984C298 201.880705 296.866675 203 295.471344 203L224.528656 203C223.132118 203 222 201.877235 222 200.499984L222 180.500016zM223 180.642873L223 200.357127C223 201.262738 223.752627 202 224.67716 202L295.32284 202C296.248035 202 297 201.264335 297 200.357127L297 180.642873C297 179.737262 296.247373 179 295.32284 179L224.67716 179C223.751965 179 223 179.735665 223 180.642873zM279.801502 149L224.528656 149C223.133325 149 222 150.119295 222 151.500016L222 171.499984C222 172.877235 223.132118 174 224.528656 174L295.471344 174C296.866675 174 298 172.880705 298 171.499984L298 167.4286C297.699091 167.482004 297.372374 167.534863 297.025475 167.584753 297.016983 167.585974 297.008492 167.587192 297 167.588406L297 171.357127C297 172.264335 296.248035 173 295.32284 173L224.67716 173C223.752627 173 223 172.262738 223 171.357127L223 151.642873C223 150.735665 223.751965 150 224.67716 150L280.302409 150C280.083667 149.664286 279.918433 149.329454 279.801502 149zM298 139.721957L298 120.534712C298 119.139161 296.867882 118 295.471344 118L224.528656 118C223.133325 118 222 119.134829 222 120.534712L222 140.465288C222 141.860839 223.132118 143 224.528656 143L287.381355 143 285.494313 134.97945C285.071849 132.867133 286.008546 131.261366 287.668777 130.707956 289.217245 130.1918 290.878796 130.796 291.366656 132.26207L293.913341 141.812137C294.272646 140.406199 295.223294 139.528454 296.854557 139.528454 297.273741 139.528454 297.655026 139.59516 298 139.721957zM257.684211 137.684211L251.368421 131.611336 253.136842 129.910931 257.684211 134.283401 267.284211 125.052632 269.052632 126.753036 257.684211 137.684211z"/>
    <path d="M306.902767 142.749279C306.336831 141.281525 305.25815 140.370559 303.591399 140.370559 301.935736 140.370559 300.860345 141.269445 300.291393 142.720062 300.257496 142.595354 300.220319 142.470018 300.179637 142.344639 299.617249 140.6114 298.543546 139.528454 296.854557 139.528454 295.223294 139.528454 294.272646 140.406199 293.913341 141.812137L291.366656 132.26207C290.878796 130.796 289.217245 130.1918 287.668777 130.707956 286.008546 131.261366 285.071849 132.867133 285.494313 134.97945L288.451219 147.547273C288.081896 147.135481 287.672496 146.726288 287.229144 146.340932 286.305247 145.537891 285.341867 144.931273 284.356127 144.602693 281.031442 143.494465 277.981446 146.92571 280.517715 150.307402 280.980176 150.924017 281.616157 151.7186 282.550329 152.855176 282.976437 153.373608 284.750468 155.515961 285.177898 156.035209 285.312241 156.198411 285.441414 156.355627 285.566852 156.508622 288.816715 160.472471 290.538768 162.858231 290.538768 163.528454 290.538768 163.880789 290.304922 164.195082 289.755134 164.644422 289.732473 164.662943 289.371217 164.951465 289.272077 165.035608 289.081745 165.197147 288.947335 165.332561 288.846479 165.477452 288.368394 166.164282 288.776668 166.761619 289.946709 167.281638 290.867047 167.690677 292.110269 167.866898 293.603797 167.859961 294.695336 167.854892 295.859968 167.752373 297.025475 167.584753 297.443591 167.524621 297.832389 167.460175 298.182016 167.395661 298.361133 167.36261 298.497586 167.335653 298.585303 167.317389 299.480899 167.296542 300.123904 166.670886 300.89582 165.435822 301.800349 163.988575 301.828022 163.949507 301.907189 163.949507 301.880853 163.949507 301.944269 164.017801 302.056904 164.24307 302.11582 164.360903 302.457925 165.150376 302.583219 165.400965 303.199684 166.633894 303.997723 167.317928 305.27561 167.317928L307.794036 167.317928C308.550159 167.317928 308.991842 166.69099 308.753628 165.977129 308.670517 165.820976 308.583843 165.591987 308.489814 165.15241 308.323832 164.376458 308.222978 163.289883 308.222978 161.844244 308.222978 160.817575 308.597686 160.161836 309.58176 159.177762 309.678682 159.08084 310.095524 158.672419 310.204918 158.563025 311.743306 157.024638 312.433505 155.690253 312.433505 153.423191L312.433505 145.002138C312.433505 144.626817 312.344591 144.093335 312.073263 143.55068 311.609563 142.623278 310.7568 142.05477 309.486136 142.05477 308.341708 142.05477 307.547732 142.51832 307.082794 143.290789 307.032345 143.111971 306.972712 142.930681 306.902767 142.749279zM307.794036 166.475823L305.27561 166.475823C304.378058 166.475823 303.82522 166.001962 303.336421 165.024364 303.224874 164.801269 302.882768 164.011795 302.810105 163.866469 302.563091 163.37244 302.316983 163.107402 301.907189 163.107402 301.527989 163.107402 301.24456 163.351586 300.918863 163.811394 300.812775 163.961165 300.705679 164.12886 300.555692 164.375414 300.663828 164.197657 300.273585 164.842517 300.181716 164.989507 299.545883 166.00684 299.057359 166.475823 298.538768 166.475823 298.375336 166.501334 298.231636 166.530183 298.029209 166.567536 297.690117 166.630106 297.312223 166.692744 296.905599 166.751224 295.775586 166.913739 294.647995 167.012997 293.599886 167.017865 292.214957 167.024298 291.078779 166.863249 290.288721 166.512112 289.530887 166.175297 289.459478 166.070821 289.53763 165.958546 289.587956 165.886247 289.67751 165.796024 289.816989 165.677646 289.90473 165.603178 290.256805 165.321988 290.288042 165.296458 291.020096 164.698152 291.380873 164.213262 291.380873 163.528454 291.380873 162.540245 289.760824 160.295802 286.218064 155.974709 286.092265 155.821272 285.962742 155.663631 285.828059 155.500015 285.399513 154.979412 283.625752 152.837384 283.20089 152.320469 282.274169 151.192958 281.644356 150.406081 281.191399 149.802138 279.188863 147.132091 281.495717 144.53688 284.08983 145.401584 284.956501 145.690475 285.829743 146.240335 286.676709 146.976508 287.139863 147.379076 287.56547 147.81145 287.943018 148.243634 288.168487 148.501731 288.326536 148.700671 288.407286 148.810515 289.007565 149.533304 289.700278 149.179164 289.49227 148.29513L286.317049 134.800438C285.98105 133.119227 286.676975 131.926214 287.935074 131.506847 289.077682 131.125978 290.242297 131.549474 290.560375 132.503708L293.705572 144.30125C293.957121 145.244559 294.761236 145.104162 294.665972 144.126947 294.653789 144.051567 294.641435 143.967336 294.62875 143.848554 294.569823 143.296746 294.578395 142.699102 294.698886 142.148695 294.948326 141.009249 295.598155 140.370559 296.854557 140.370559 298.112936 140.370559 298.916881 141.181425 299.378642 142.60454 299.663953 143.483847 299.75918 144.381522 299.756374 144.995141 299.766446 145.157198 299.77603 145.256036 299.786749 145.328456 299.793794 145.376061 299.801665 145.415773 299.812886 145.453512 299.825446 145.494543 299.825446 145.494543 299.8603 145.563955 299.921551 145.673187 299.921551 145.673187 300.213529 145.776763 300.524606 145.688361 300.524606 145.688361 300.594965 145.571382 300.632841 145.498614 300.632841 145.498614 300.645907 145.456519 300.657427 145.41843 300.665339 145.378752 300.672369 145.331202 300.682872 145.260168 300.692128 145.163565 300.700748 145.038964 300.698211 144.500459 300.790148 143.767016 301.065752 143.052237 301.516371 141.883559 302.310782 141.212665 303.591399 141.212665 304.872017 141.212665 305.666427 141.883559 306.117046 143.052237 306.392651 143.767016 306.484588 144.500459 306.481088 145.00354 306.494462 145.175243 306.507474 145.275045 306.52297 145.350891 306.533814 145.403972 306.546382 145.449439 306.564927 145.493814 306.629711 145.648827 306.72553 145.764342 306.953434 145.774313 307.194795 145.784872 307.30402 145.664281 307.375255 145.504092 307.395299 145.459018 307.408808 145.413077 307.420585 145.359244 307.437183 145.283371 307.451484 145.183099 307.46474 145.054908 307.461749 144.712428 307.521043 144.307756 307.700574 143.920988 308.001509 143.272673 308.550342 142.896875 309.486136 142.896875 310.425999 142.896875 310.994289 143.275735 311.320061 143.927281 311.4378 144.162757 311.514774 144.419337 311.557654 144.676622 311.583155 144.829625 311.591399 144.945046 311.591399 145.002138L311.591399 153.423191C311.591399 155.436831 311.003403 156.573624 309.60946 157.967567 309.504116 158.07291 309.087274 158.481331 308.986302 158.582304 307.859498 159.709107 307.380873 160.546702 307.380873 161.844244 307.380873 163.345972 307.487132 164.490789 307.666338 165.328558 307.767791 165.802841 307.875163 166.107726 307.965314 166.277804 308.006082 166.424372 307.958503 166.475823 307.794036 166.475823zM296 150L298 150 298 159 296 159 296 150zM300 150L302 150 302 159 300 159 300 150zM304 150L306 150 306 159 304 159 304 150zM260 102C276.568542 102 290 88.5685425 290 72 290 55.4314575 276.568542 42 260 42 243.431458 42 230 55.4314575 230 72 230 88.5685425 243.431458 102 260 102zM260 110C239.01318 110 222 92.9868205 222 72 222 51.0131795 239.01318 34 260 34 280.98682 34 298 51.0131795 298 72 298 92.9868205 280.98682 110 260 110z"/>
  </g>
</svg>

<svg xmlns="http://www.w3.org/2000/svg" width="320" height="258" viewBox="0 0 320 258"><g fill="#1000C5" fill-rule="evenodd"><path d="M1 257h318V1H1v256zM0 0h320v258H0V0z"/><path d="M22 170c0-1.105.887-2 1.992-2h147.016c1.1 0 1.992.888 1.992 2 0 1.105-.887 2-1.992 2H23.992c-1.1 0-1.992-.888-1.992-2zm0 11c0-1.105.887-2 1.992-2h147.016c1.1 0 1.992.888 1.992 2 0 1.105-.887 2-1.992 2H23.992c-1.1 0-1.992-.888-1.992-2zm0 11c0-1.105.887-2 1.992-2h147.016c1.1 0 1.992.888 1.992 2 0 1.105-.887 2-1.992 2H23.992c-1.1 0-1.992-.888-1.992-2zm0 11c0-1.105.887-2 1.992-2h147.016c1.1 0 1.992.888 1.992 2 0 1.105-.887 2-1.992 2H23.992c-1.1 0-1.992-.888-1.992-2zm0 11c0-1.105.887-2 1.992-2h147.016c1.1 0 1.992.888 1.992 2 0 1.105-.887 2-1.992 2H23.992c-1.1 0-1.992-.888-1.992-2zm0 11c0-1.105.887-2 1.992-2h147.016c1.1 0 1.992.888 1.992 2 0 1.105-.887 2-1.992 2H23.992c-1.1 0-1.992-.888-1.992-2zm0 11c0-1.105.9-2 2.003-2h83.994c1.106 0 2.003.888 2.003 2 0 1.105-.9 2-2.003 2H24.003A1.997 1.997 0 0 1 22 236zm0-77c0-1.105.887-2 1.992-2h147.016c1.1 0 1.992.888 1.992 2 0 1.105-.887 2-1.992 2H23.992c-1.1 0-1.992-.888-1.992-2zM0 0h320v21H0zM22 65h173v83H22zM22 38c0-2.21 1.787-4 3.998-4h164.004A4.002 4.002 0 0 1 194 38c0 2.21-1.787 4-3.998 4H25.998A4.002 4.002 0 0 1 22 38zm0 17c0-2.21 1.782-4 4.003-4h103.994A4.004 4.004 0 0 1 134 55c0 2.21-1.782 4-4.003 4H26.003A4.004 4.004 0 0 1 22 55zm200 154.5c0-1.38 1.133-2.5 2.529-2.5h70.942c1.397 0 2.529 1.123 2.529 2.5v20c0 1.38-1.133 2.5-2.529 2.5H224.53c-1.397 0-2.529-1.123-2.529-2.5v-20zm1 .143v19.714c0 .906.753 1.643 1.677 1.643h70.646c.925 0 1.677-.736 1.677-1.643v-19.714c0-.906-.753-1.643-1.677-1.643h-70.646c-.925 0-1.677.736-1.677 1.643zm-1-29.143c0-1.38 1.133-2.5 2.529-2.5h70.942c1.397 0 2.529 1.123 2.529 2.5v20c0 1.38-1.133 2.5-2.529 2.5H224.53c-1.397 0-2.529-1.123-2.529-2.5v-20zm1 .143v19.714c0 .906.753 1.643 1.677 1.643h70.646c.925 0 1.677-.736 1.677-1.643v-19.714c0-.906-.753-1.643-1.677-1.643h-70.646c-.925 0-1.677.736-1.677 1.643zM279.802 149h-55.273c-1.396 0-2.529 1.12-2.529 2.5v20c0 1.377 1.132 2.5 2.529 2.5h70.942c1.396 0 2.529-1.12 2.529-2.5v-4.071a30.182 30.182 0 0 1-1 .16v3.768c0 .907-.752 1.643-1.677 1.643h-70.646c-.924 0-1.677-.737-1.677-1.643v-19.714c0-.907.752-1.643 1.677-1.643h55.625a4.737 4.737 0 0 1-.5-1zM298 139.722v-19.187a2.534 2.534 0 0 0-2.529-2.535H224.53a2.532 2.532 0 0 0-2.529 2.535v19.93a2.534 2.534 0 0 0 2.529 2.535h62.852l-1.887-8.02c-.422-2.113.515-3.719 2.175-4.272 1.548-.516 3.21.088 3.698 1.554l2.546 9.55c.36-1.406 1.31-2.284 2.942-2.284.419 0 .8.067 1.145.194zm-40.316-2.038l-6.316-6.073 1.769-1.7 4.547 4.372 9.6-9.23 1.769 1.7-11.369 10.931z"/><path d="M306.903 142.75c-.566-1.468-1.645-2.38-3.312-2.38-1.655 0-2.73.9-3.3 2.35a8.104 8.104 0 0 0-.111-.375c-.563-1.734-1.636-2.817-3.325-2.817-1.632 0-2.582.878-2.942 2.284l-2.546-9.55c-.488-1.466-2.15-2.07-3.698-1.554-1.66.553-2.597 2.16-2.175 4.271l2.957 12.568a13.89 13.89 0 0 0-1.222-1.206c-.924-.803-1.887-1.41-2.873-1.738-3.325-1.109-6.375 2.323-3.838 5.704a77.566 77.566 0 0 0 2.032 2.548c.426.519 2.2 2.661 2.628 3.18l.389.474c3.25 3.963 4.972 6.35 4.972 7.02 0 .352-.234.666-.784 1.115-.023.019-.384.307-.483.392-.19.161-.325.297-.426.441-.478.687-.07 1.285 1.1 1.805.921.409 2.164.585 3.658.578a25.183 25.183 0 0 0 3.421-.275 29.721 29.721 0 0 0 1.56-.268c.896-.02 1.539-.646 2.31-1.881.905-1.447.933-1.486 1.012-1.486-.026 0 .037.068.15.293.059.118.4.907.526 1.158.617 1.233 1.415 1.917 2.693 1.917h2.518c.756 0 1.198-.627.96-1.34-.083-.157-.17-.386-.264-.826-.166-.776-.267-1.862-.267-3.308 0-1.026.375-1.682 1.359-2.666l.623-.615c1.538-1.538 2.229-2.873 2.229-5.14v-8.42c0-.376-.09-.91-.36-1.452-.464-.928-1.317-1.496-2.588-1.496-1.144 0-1.938.463-2.403 1.236a6.14 6.14 0 0 0-.18-.542zm.891 23.726h-2.518c-.898 0-1.45-.474-1.94-1.452-.111-.223-.453-1.012-.526-1.158-.247-.494-.493-.759-.903-.759-.379 0-.662.245-.988.704-.106.15-.213.318-.363.564.108-.177-.282.468-.374.615-.636 1.017-1.125 1.486-1.643 1.486-.164.025-.307.054-.51.092-.339.062-.717.125-1.123.183a24.37 24.37 0 0 1-3.306.267c-1.385.006-2.521-.155-3.311-.506-.758-.337-.83-.441-.751-.553.05-.073.14-.163.279-.281.088-.075.44-.356.471-.382.732-.598 1.093-1.083 1.093-1.768 0-.988-1.62-3.232-5.163-7.553l-.39-.475c-.428-.52-2.202-2.663-2.627-3.18a76.947 76.947 0 0 1-2.01-2.518c-2.002-2.67.305-5.265 2.899-4.4.867.288 1.74.838 2.587 1.575a13.14 13.14 0 0 1 1.73 1.834c.6.722 1.293.368 1.085-.516l-3.175-13.495c-.336-1.68.36-2.874 1.618-3.293 1.143-.381 2.307.042 2.625.997l3.146 11.797c.251.944 1.055.803.96-.174a4.94 4.94 0 0 1-.037-.278 5.414 5.414 0 0 1 .07-1.7c.25-1.14.9-1.778 2.156-1.778 1.258 0 2.062.81 2.524 2.234.285.879.38 1.777.377 2.39.01.162.02.261.03.333a.89.89 0 0 0 .027.126.496.496 0 0 0 .047.11c.062.11.062.11.354.213.31-.089.31-.089.381-.206.038-.072.038-.072.05-.114a.86.86 0 0 0 .027-.126c.01-.07.02-.167.029-.292a5.634 5.634 0 0 1 .365-1.987c.45-1.168 1.245-1.84 2.525-1.84 1.281 0 2.075.672 2.526 1.84.276.715.368 1.448.364 1.952.013.171.026.271.042.347.01.053.023.098.042.143.065.155.16.27.388.28.242.01.351-.11.422-.27a.732.732 0 0 0 .046-.145 2.87 2.87 0 0 0 .044-.304 2.66 2.66 0 0 1 .236-1.134c.3-.648.85-1.024 1.785-1.024.94 0 1.508.379 1.834 1.03.118.236.195.492.238.75.025.153.033.268.033.325v8.421c0 2.014-.588 3.15-1.982 4.545-.105.105-.522.513-.623.614-1.127 1.127-1.605 1.965-1.605 3.262 0 1.502.106 2.647.285 3.485.102.474.21.779.3.949.04.146-.007.198-.172.198zM296 150h2v9h-2v-9zm4 0h2v9h-2v-9zm4 0h2v9h-2v-9zm-44-48c16.569 0 30-13.431 30-30 0-16.569-13.431-30-30-30-16.569 0-30 13.431-30 30 0 16.569 13.431 30 30 30zm0 8c-20.987 0-38-17.013-38-38s17.013-38 38-38 38 17.013 38 38-17.013 38-38 38z"/></g></svg>
